X:1
T:I Know of a Name
T:I Know of a Name
T:Mabel Johnston Camp
T:Jean Perry, 1916
T:Public Domain Courtesy of the Cyber Hymnal™
T:Public Domain Courtesy of the Cyber Hymnal™
C:Mabel Johnston Camp
Z:Public Domain
Z:Courtesy of the Cyber Hymnal™
%%score ( 1 2 ) ( 3 4 )
L:1/8
Q:1/4=125
M:3/4
K:G
V:1 treble 
V:2 treble 
V:3 bass 
V:4 bass 
V:1
 [B,D]2 | [DB]2 [CA]2 [B,G]2 | [B,D]4 [B,^D]2 | [DF]2 [CE]2 [C^D]2 | [CE]4 [CG]2 | %5
w: 1.~I|know of a|name, a|beau- ti- ful|name, That|
w: 2.~I|know of a|name, a|beau- ti- ful|name, That|
w: 3.~The|One of that|name, my|Sav- ior be-|came, My|
w: 4.~I|love that blest|name, that|won- der- ful|name, Made|
 [CF]2 [A,C]2 [A,D]2 | [CE]4 [CF]2 | ([^A,E]6 | [B,D]4) [B,D]2 | [DB]2 [CA]2 [B,G]2 | %10
w: an- gels brought|down to|earth;|* They|whis- pered it|
w: un- to a|Babe was|given.|* The|stars glit- tered|
w: Sav- ior of|Cal- va-|ry.|* My|sins nailed Him|
w: high- er than|all in|Heaven.|* ’Twas|whis- pered, I|
 [B,D]4 ([B,^D][B,D]) | [DF]2 [CE]2 [C^D]2 | [CE]4 ([CE][CE]) | [^A,G]2 [A,F]2 [A,E]2 | %14
w: low, one *|night long a-|go, To~a *|maid- en of|
w: bright through- *|out that glad|night, And *|ang- els praised|
w: there; my *|bur- dens He|bare. He *|suf- fered all|
w: know, in~my *|heart long a-|go To *|Je- sus my|
 [B,D]4 [CA]2 | [B,G]6- | [B,G]4 ||"^Refrain" [=FG]2 | [Ec]2 [EG]2 [_EA]2 | [DB]4 [DB]2 | %20
w: low- ly|birth.|||||
w: God in|Heav’n.||That|beau- ti- ul|name, that|
w: this for|me.|||||
w: life I’ve|giv’n.|||||
 [^DB]2 [DF]2 [FA]2 | [EG]4 [EG]2 | (A2 B2) [GA]2 | (A2 B2) [GA]2 | d6 | [Fd]4 [Ec]2 | %26
w: ||||||
w: beau- ti- ful|name, From|sin * has|power * to|free|us! That|
w: ||||||
w: ||||||
 [DB]2 [DA]2 [DG]2 | (c2 B2) [DA]2 | [Dd]2 [Ec]2 [=FB]2 | !fermata!e4 !fermata![Ge]2 | %30
w: ||||
w: beau- ti- ful|name, * that|won- der- ful|name, That|
w: ||||
w: ||||
 [Gd]4 [G^c]2 | [Gd]4 [GB]2 | A6 | [DG]4 |] %34
w: ||||
w: match- less|name is|Je-|sus!|
w: ||||
w: ||||
V:2
 x2 | x6 | x6 | x6 | x6 | x6 | x6 | x6 | x6 | x6 | x6 | x6 | x6 | x6 | x6 | x6 | x4 || x2 | x6 | %19
 x6 | x6 | x6 | G4 x2 | G4 x2 | (F2 A2 G2) | x6 | x6 | D4 x2 | x6 | (E2 G2) x2 | x6 | x6 | %32
 (F4 D2) | x4 |] %34
V:3
 [G,,G,]2 | [G,,G,]2 [G,,G,]2 [G,,D,]2 | [G,,G,]4 [B,,A,]2 | [C,A,]2 [C,G,]2 [C,F,]2 | %4
 [C,G,]4 [C,E,]2 | [D,A,]2 [D,F,]2 [D,F,]2 | [D,A,]4 [D,A,]2 | ([G,,G,]6- | [G,,G,]4) [G,,G,]2 | %9
 [G,,G,]2 [G,,G,]2 [G,,D,]2 | [G,,G,]4 ([B,,A,][B,,A,]) | [C,A,]2 [C,G,]2 [C,F,]2 | %12
 [C,G,]4 ([C,G,][C,G,]) | [^C,E,]2 [C,F,]2 [C,G,]2 | [D,G,]4 [D,F,]2 | [G,,G,]6- | [G,,G,]4 || %17
 G,2 | [C,G,]2 [C,G,]2 [C,G,]2 | [G,,G,]4 [G,,G,]2 | [D,F,]2 [B,,B,]2 [B,,B,]2 | [E,B,]4 [E,B,]2 | %22
 [A,,^C]4 [E,C]2 | [A,,^C]4 [E,A,]2 | (A,2 C2 B,2) | [D,A,]4 [D,F,]2 | [G,,G,]2 [A,,F,]2 [B,,G,]2 | %27
 ([A,,F,]2 [B,,G,]2) [C,F,]2 | [B,,G,]2 [A,,F,]2 [G,,G,]2 | (G,2 C2) [^C,^A,]2 | %30
 [D,B,]4 [_E,^A,]2 | [D,B,]4 [D,D]2 | [D,C]6 | [G,,B,]4 |] %34
V:4
 x2 | x6 | x6 | x6 | x6 | x6 | x6 | x6 | x6 | x6 | x6 | x6 | x6 | x6 | x6 | x6 | x4 || G,2 | x6 | %19
 x6 | x6 | x6 | x6 | x6 | D,6 | x6 | x6 | x6 | x6 | ^C,4 x2 | x6 | x6 | x6 | x4 |] %34

